!!!COM:	Bach, Johann Sebastian
!!!OMV:	O wie selig ihr doch, ihr Frommen
!!!OTL:	O wie selig ihr doch, ihr Frommen
**kern	**fb	**kern	**kern	**kern	**kern
*part5	*part5	*part4	*part3	*part2	*part1
*staff5	*	*staff4	*staff3	*staff2	*staff1
*I"Continuo	*	*I"Voice	*I"Voice	*I"Voice	*I"Voice
*I'Cont.	*	*I'V	*I'V	*I'V	*I'V
*clefF4	*	*clefF4	*clefGv2	*clefG2	*clefG2
*Trd0c0	*	*	*	*	*
*k[b-]	*	*k[b-]	*k[b-]	*k[b-]	*k[b-]
*M4/4	*	*M4/4	*M4/4	*M4/4	*M4/4
=	=	=	=	=	=
4D	.	4D	4d	4f	4a
8CL	5 2	8CL	4d	4g	4dd
8BB-J	.	8BB-J	.	.	.
4AA	7	4AA	4e	4g	4cc
4D	6	4D	4d	[4f	8b-L
.	5	.	.	.	8aJ
=3	=3	=3	=3	=3	=3
4GG	7	4GG	8dL	8fL]	4b-
.	6	.	8B-J	8eJ	.
8AAL	6	8AAL	4c	[4f	4a
8BB-J	.	8BB-J	.	.	.
4C	.	4C	4c	8fL]	4g
.	.	.	.	8eJ	.
4F	.	4F	4c	4f	8aL
.	.	.	.	.	8b-J
=4	=4	=4	=4	=4	=4
4BB-	6 5	4BB-	8dL	4f	2g
.	.	.	8B-J	.	.
4C	.	4C	8GL	4e	.
.	.	.	8cJ	.	.
2FF;	.	2FF;	2A;	2c;	2f;
=5	=5	=5	=5	=5	=5
4F	.	4F	8cL	4f	8aL
.	.	.	8dJ	.	8b-J
8EL	6	8EL	8eL	8gL	4cc
8F#XJ	6 5	8F#XJ	8dJ	8aJ	.
8GL	n	8GL	4d	4g	4.bn
8FnJ	.	8FnJ	.	.	.
4E	nr5	4E	4e	4g	.
.	#6\	.	.	.	8cc#X
=6	=6	=6	=6	=6	=6
8F#XL	6	8F#XL	8dL	8aL	4dd
8G#XJ	6 5	8G#XJ	8BnJ	8bnJ	.
4A	.	4A	4e	4a	8ccnL
.	.	.	.	.	8ddJ
4C	6	4C	4e	4a	4ee
4D	.	4D	4f	4a	8ddL
.	.	.	.	.	8ccJ
=7	=7	=7	=7	=7	=7
!!linebreak:original
4E	4	4E	8Bn	4a	2bn
.	.	.	4e	.	.
4EE	#	4EE	.	4g#X	.
.	.	.	8d	.	.
2AA;	.	2AA;	2c#X;	2e;	2a;
=8	=8	=8	=8	=8	=8
4r	.	4r	4r	4r	4r
4AA	#	4AA	4E	4c#X	4a
4BBn	6	4BBn	4D	4d	4gn
4C#X	6 5	4C#X	4A	4e	4e
=9	=9	=9	=9	=9	=9
4D	9	4D	2A	4e	2f
4DD	8	4DD	.	4d	.
2AA;	#	2AA;	2A;	2c#X;	2e;
=10	=10	=10	=10	=10	=10
4F	6	4F	4A	4d	4d
4C#X	6	4C#X	4A	4A	4e
4D	.	4D	8AL	4d	4f
.	.	.	8B-J	.	.
4E	6	4E	8AL	4cn	4g
.	.	.	8GJ	.	.
=11	=11	=11	=11	=11	=11
4F	5	4F	8FL	4c	4a
.	.	.	8AJ	.	.
8EL	7 nr5	8EL	8GL	4f	4bn
8DJ	.	8DJ	8FJ	.	.
4E	#6\	4E	4G	4e	4cc#X
8FL	6	8FL	8AL	8dL	4dd
8GJ	.	8GJ	8B-J	8eJ	.
=12	=12	=12	=12	=12	=12
4A	4	4A	4A	8f	4dd
.	.	.	.	16eLL	.
.	.	.	.	16dJJ	.
4AA	#	4AA	4A	4e	4cc#X
2D;	.	2D;	2A;	2f#X;	2dd;
=||	=||	=||	=||	=||	=||
*-	*-	*-	*-	*-	*-
!!!system-decoration: s1,s2,s3,s4,s5
